src/sources/forus-platform/resources/_platform-common/assets/img/menu/icon-transactions-hover.svg

<svg xmlns="http://www.w3.org/2000/svg" width="30" height="30" viewBox="-5 -4.5 30 30"><path fill="#2987FD" d="M.3 6c.2-.1.4-.2.6-.2h11.6c.3 0 .6.2.8.4.1.2.1.5.1.7v2.2c0 .5-.4.8-.801.8h-1.3c-.2 0-.399-.1-.601-.2C9.9 9 9.1 8.3 8.4 7.5H1.7v3.3L5 14.1c.1.1.2.1.3.1h3.1c.5 0 .8.4.8.801 0 .5-.4.8-.8.8H.9c-.4 0-.8-.3-.8-.8V6.6C0 6.4.1 6.2.3 6zm9.7 5.699c0-.5.4-.799.8-.799h8.3c.5 0 .801.4.9.799V19.3c0 .399-.4.8-.801.8H10.8c-.3 0-.5-.199-.7-.4-.1-.3-.1-.501-.1-.6v-7.401zm1.699 2.5V15.9H13.4v-1.701h-1.701zm2.5 0V15.9H15.9v-1.701h-1.701zm2.5 0V15.9H18.4v-1.701h-1.701zm-5 2.5V18.4H13.4v-1.701h-1.701zm2.5 0V18.4H15.9v-1.701h-1.701zm2.5 0V18.4H18.4v-1.701h-1.701z"/><path fill="#004195" d="M6.3 9.2c.9-.2 1.8.4 2 1.3.1.5 0 1-.3 1.4-.6.7-1.6.9-2.3.3-.7-.6-.9-1.6-.3-2.3l.1-.1c.1-.3.5-.5.8-.6zM15 0h4.2v4.2c0 .5-.399.8-.8.8-.5 0-.8-.4-.8-.8V2.8L15.4 5c-.3.3-.8.3-1.2 0-.3-.3-.3-.8 0-1.2l2.2-2.2h-1.301c-.5 0-.799-.4-.799-.8-.1-.4.2-.8.7-.8z"/></svg>

<?xml version="1.0" encoding="utf-8"?>
<!DOCTYPE svg PUBLIC "-//W3C//DTD SVG 1.1//EN" "http://www.w3.org/Graphics/SVG/1.1/DTD/svg11.dtd">
<svg version="1.1" id="Layer_1" xmlns="http://www.w3.org/2000/svg" xmlns:xlink="http://www.w3.org/1999/xlink" x="0px" y="0px"
	 width="30px" height="30px" viewBox="-5 -4.5 30 30" enable-background="new -5 -4.5 30 30" xml:space="preserve">
<path fill="#2987FD" d="M0.3,6c0.2-0.1,0.4-0.2,0.6-0.2c3.9,0,7.7,0,11.6,0c0.3,0,0.6,0.2,0.8,0.4C13.4,6.4,13.4,6.7,13.4,6.9
	c0,0.7,0,1.5,0,2.2c0,0.5-0.4,0.8-0.801,0.8s-0.9,0-1.3,0c-0.2,0-0.399-0.1-0.601-0.2C9.9,9,9.1,8.3,8.4,7.5c0,0-0.1,0-0.2,0
	c-2.2,0-4.4,0-6.5,0c0,1.1,0,2.2,0,3.3C2.8,11.9,3.9,13,5,14.1c0.1,0.1,0.2,0.1,0.3,0.1c1,0,2.1,0,3.1,0c0.5,0,0.8,0.4,0.8,0.801
	c0,0.5-0.4,0.8-0.8,0.8c-2.5,0-5,0-7.5,0c-0.4,0-0.8-0.3-0.8-0.8V6.6C0,6.4,0.1,6.2,0.3,6z M10,11.699c0-0.5,0.4-0.799,0.8-0.799
	c2.8,0,5.5,0,8.3,0c0.5,0,0.801,0.4,0.9,0.799V19.3c0,0.399-0.4,0.8-0.801,0.8H10.8c-0.3,0-0.5-0.199-0.7-0.4
	C10,19.4,10,19.199,10,19.1C10,16.6,10,14.1,10,11.699z M11.699,14.199c0,0.601,0,1.101,0,1.701H13.4c0-0.601,0-1.101,0-1.701
	C12.8,14.199,12.199,14.199,11.699,14.199z M14.199,14.199V15.9c0.601,0,1.101,0,1.701,0c0-0.601,0-1.101,0-1.701H14.199z
	 M16.699,14.199c0,0.601,0,1.101,0,1.701c0.601,0,1.101,0,1.701,0c0-0.601,0-1.101,0-1.701H16.699z M11.699,16.699V18.4
	c0.601,0,1.101,0,1.701,0c0-0.601,0-1.101,0-1.701H11.699z M14.199,16.699c0,0.601,0,1.101,0,1.701H15.9c0-0.601,0-1.101,0-1.701
	C15.3,16.699,14.699,16.699,14.199,16.699z M16.699,16.699c0,0.601,0,1.101,0,1.701H18.4c0-0.601,0-1.101,0-1.701
	C17.8,16.699,17.199,16.699,16.699,16.699z"/>
<path fill="#004195" d="M6.3,9.2c0.9-0.2,1.8,0.4,2,1.3c0.1,0.5,0,1-0.3,1.4C7.4,12.6,6.4,12.8,5.7,12.2C5,11.6,4.8,10.6,5.4,9.9
	c0,0,0,0,0.1-0.1C5.6,9.5,6,9.3,6.3,9.2z M15,0h4.2c0,1.4,0,2.8,0,4.2c0,0.5-0.399,0.8-0.8,0.8C17.9,5,17.6,4.6,17.6,4.2V2.8
	C16.9,3.5,16.2,4.2,15.4,5C15.1,5.3,14.6,5.3,14.2,5c-0.3-0.3-0.3-0.8,0-1.2c0.7-0.7,1.399-1.4,2.2-2.2c-0.4,0-0.9,0-1.301,0
	c-0.5,0-0.799-0.4-0.799-0.8C14.2,0.4,14.5,0,15,0z"/>
</svg>
